frontend/src/assets/Neurologist.svg

<svg width="127" height="126" viewBox="0 0 127 126" fill="none" xmlns="http://www.w3.org/2000/svg">
<circle cx="63.3012" cy="62.8325" r="62.8325" fill="url(#paint0_linear_4741_2343)"/>
<circle cx="66.3187" cy="54.7914" r="26.641" fill="#577CFF"/>
<path d="M72.88 57.5103C71.5149 57.5103 70.4275 57.2473 69.5536 56.8419C68.246 56.2364 67.3991 55.3034 66.866 54.3719C66.6004 53.9087 66.4164 53.4482 66.3009 53.0428C66.1854 52.6387 66.1398 52.283 66.1411 52.0708C66.1411 51.6654 65.8136 51.3379 65.4095 51.3379C65.0054 51.3379 64.6777 51.6654 64.6777 52.0708C64.6777 52.334 64.7101 52.624 64.7745 52.9434C64.8871 53.5032 65.0965 54.1475 65.4417 54.8146C65.9557 55.8095 66.7747 56.8551 67.999 57.6473C68.3064 57.8499 68.6351 58.0311 68.9923 58.1923C69.0486 58.4352 69.1278 58.8608 69.1267 59.3776C69.1267 59.752 69.085 60.1683 68.9723 60.5966C68.8593 61.0248 68.6756 61.4597 68.3802 61.8852C68.1533 62.2194 68.234 62.6731 68.5667 62.9027C68.8983 63.1323 69.3535 63.0506 69.583 62.7176C69.9829 62.1415 70.2367 61.5416 70.3872 60.9711C70.5362 60.3991 70.5884 59.8542 70.5884 59.3776C70.5884 59.14 70.575 58.9158 70.5563 58.7146C71.2596 58.8769 72.0303 58.9736 72.8799 58.9736C73.2839 58.9736 73.6116 58.6462 73.6116 58.2419C73.6118 57.838 73.2843 57.5103 72.88 57.5103Z" fill="#BCCBE1"/>
<path d="M76.123 48.0979C75.7713 47.9019 75.3269 48.0227 75.127 48.3758C74.9283 48.7262 75.0532 49.1719 75.4049 49.3718C75.9444 49.6806 76.2721 50.0215 76.4923 50.3747C75.5901 50.6913 74.7927 50.823 74.0853 50.823C73.0529 50.8217 72.2087 50.5491 71.4944 50.1304C70.7841 49.7129 70.211 49.1397 69.7747 48.5477C69.0567 47.5677 68.1237 46.6965 67.0229 46.0602C65.9222 45.4267 64.6508 45.0293 63.2844 45.0293C62.0883 45.0293 60.8278 45.3381 59.5767 46.024C59.0666 46.3034 58.6223 46.6307 58.237 46.9893C56.716 47.5745 55.4072 47.7867 54.2971 47.7867C52.7172 47.7839 51.5384 47.3624 50.7492 46.9462C50.3559 46.7368 50.0618 46.5301 49.8714 46.3798C49.7761 46.3034 49.7049 46.2443 49.6618 46.204L49.6189 46.1624L49.6108 46.1544C49.3302 45.8672 48.8697 45.859 48.5784 46.1381C48.2885 46.4186 48.2804 46.8804 48.5596 47.1718C48.6025 47.2135 49.1034 47.7261 50.0658 48.2378C50.4871 48.4605 51.0027 48.6794 51.5988 48.8579C51.4405 49.0807 51.2241 49.4082 50.9881 49.8216C50.5358 50.6204 50.0161 51.7426 49.7531 53.0624C49.6711 53.4609 49.929 53.8449 50.3249 53.924C50.721 54.0047 51.1048 53.7455 51.184 53.3494C51.4056 52.2367 51.8619 51.246 52.2606 50.5439C52.4607 50.1894 52.6444 49.9117 52.7774 49.7211C52.8445 49.6284 52.8969 49.5546 52.9331 49.5089C52.9506 49.486 52.9641 49.4701 52.972 49.4593L52.9827 49.4485L52.984 49.4459C53.05 49.364 53.0942 49.2713 53.1197 49.1721C53.4914 49.2204 53.8821 49.2473 54.297 49.2473C55.0648 49.2473 55.9079 49.1561 56.8153 48.9506C56.3629 49.9185 56.179 50.9307 56.1775 51.857C56.1803 52.7885 56.3575 53.637 56.6757 54.311C56.8487 54.6747 57.2851 54.8319 57.6489 54.6586C58.0126 54.4853 58.1698 54.0505 57.9965 53.6853C57.7938 53.2636 57.6379 52.5951 57.6407 51.8568C57.6394 51.0594 57.8139 50.1842 58.2261 49.3827C58.6408 48.5828 59.2825 47.8538 60.2799 47.3061C61.3311 46.7287 62.3379 46.4925 63.2842 46.4897C64.3649 46.4925 65.3823 46.8037 66.2924 47.3274C67.2 47.8497 67.992 48.588 68.596 49.4108C69.1275 50.137 69.839 50.8512 70.7533 51.3909C71.666 51.9306 72.7882 52.2863 74.0851 52.2836C74.9429 52.2836 75.8744 52.1307 76.8786 51.7897L76.8799 51.8408C76.8799 52.1992 76.8236 52.5253 76.7684 52.7564C76.7416 52.8691 76.7134 52.9617 76.6933 53.0194C76.6839 53.049 76.6772 53.0705 76.6718 53.0839L76.6679 53.0947V53.096C76.5203 53.4703 76.7 53.8934 77.0746 54.0437C77.4504 54.1927 77.876 54.0102 78.0263 53.637C78.0464 53.5846 78.3377 52.853 78.3418 51.841C78.3418 51.261 78.2411 50.5791 77.9015 49.9066C77.5661 49.2308 76.9874 48.5852 76.123 48.0979Z" fill="#BCCBE1"/>
<path d="M57.354 42.6345C57.8577 42.0411 58.5731 41.574 59.3878 41.2612C60.2026 40.9443 61.1102 40.7873 61.9612 40.7873C62.7882 40.7873 63.5601 40.9389 64.1239 41.2034C64.4931 41.3725 64.9265 41.2116 65.0943 40.8463C65.2635 40.4798 65.1038 40.0436 64.7385 39.8773C63.9224 39.4987 62.9612 39.3296 61.9611 39.3281C60.9329 39.3281 59.8617 39.512 58.8615 39.8961C57.8655 40.2799 56.9392 40.8666 56.2412 41.6922C55.9781 41.9995 56.017 42.46 56.3244 42.7203C56.6332 42.9834 57.0963 42.9433 57.354 42.6345Z" fill="#BCCBE1"/>
<path d="M68.652 23.1957C50.6318 22.0868 35.4574 33.4234 35.8009 51.8934L35.7876 53.5649L27.9587 67.3903C27.5371 68.1353 27.4994 69.0387 27.8567 69.8174C28.2137 70.596 28.9225 71.1557 29.7628 71.3222L34.601 72.6565L36.1205 87.3155C36.1608 88.729 36.7891 90.0608 37.8549 90.9884C38.9208 91.9174 40.3277 92.3564 41.7319 92.1992L45.5952 92.5067C46.3495 92.4234 47.1041 92.6637 47.6691 93.1712C48.2343 93.676 48.5579 94.3994 48.5579 95.158V106.678H81.2466C81.2466 106.678 81.2466 101.092 81.2466 98.864C81.2466 96.6342 82.0171 91.5386 83.4749 89.2053C88.7747 80.7321 97.401 76.2243 98.8562 58.8484C100.313 41.4697 89.9413 24.5073 68.652 23.1957ZM90.4003 52.9942C89.6674 54.2051 88.4821 54.9594 87.188 55.1823C86.7908 55.2522 86.5221 55.628 86.5894 56.0267C86.6605 56.4239 87.0377 56.6939 87.4351 56.6227C87.7318 56.5716 88.0244 56.4979 88.3131 56.4052C88.6244 57.0508 88.7801 57.7448 88.7801 58.4361C88.7801 59.1744 88.6044 59.9074 88.2674 60.5704C87.9317 61.2324 87.4351 61.8217 86.7826 62.2807C85.9624 62.8565 85.0294 63.1303 84.1032 63.1318C84.0295 63.1318 83.9568 63.1238 83.8844 63.1224C83.8682 63.0001 83.8534 62.8794 83.832 62.7599V62.7584C83.6724 61.9114 83.3408 61.1356 82.8884 60.4616L82.8332 60.3798L82.7582 60.3154C82.2051 59.8401 81.4707 59.0615 80.9042 58.2682C80.6183 57.8723 80.3755 57.4708 80.2116 57.1138C80.0465 56.7554 79.9699 56.4438 79.9727 56.2599C79.9727 56.178 79.9848 56.1215 80.0009 56.084C80.0143 56.0478 80.0277 56.0262 80.0559 55.9967C80.3406 55.7134 80.3406 55.2489 80.0559 54.9617C79.77 54.6784 79.3083 54.6784 79.0237 54.9617C78.8437 55.1389 78.7094 55.3535 78.6276 55.5805C78.5431 55.8035 78.5121 56.0355 78.5121 56.2598C78.5147 56.7658 78.6678 57.2464 78.8825 57.7217C79.2088 58.4319 79.6946 59.1366 80.2222 59.7809C80.7177 60.385 81.2425 60.9287 81.7152 61.3448C82.0414 61.8429 82.2788 62.4067 82.3957 63.0282C82.444 63.2901 82.4695 63.5504 82.4748 63.7988V63.8042C82.4748 63.8363 82.4762 63.8687 82.4762 63.9034C82.4762 65.007 82.0828 66.0527 81.4075 66.8756C80.7311 67.6971 79.7793 68.2944 78.6503 68.5066C78.3562 68.5629 78.0636 68.5898 77.7762 68.5898C76.2259 68.5911 74.792 67.8112 73.9303 66.5735C74.3948 66.1023 74.7909 65.5506 75.0915 64.9236V64.9249C75.466 64.1503 75.6633 63.3288 75.6982 62.5154C75.7157 62.1127 75.4043 61.7717 75.0016 61.7543C74.5962 61.7355 74.2564 62.0495 74.2376 62.4523C74.2122 63.0724 74.0619 63.6939 73.7759 64.2873L73.7746 64.29C73.4672 64.9249 73.0403 65.4566 72.5301 65.8768L72.5275 65.8781C71.6872 66.564 70.6279 66.9426 69.5447 66.9426C68.8629 66.9426 68.1701 66.7936 67.5123 66.4754C66.2948 65.8902 65.4491 64.8472 65.0746 63.6537H65.0733C64.931 63.2013 64.8572 62.7248 64.8572 62.247C64.8572 61.5637 65.0062 60.8709 65.3243 60.2119C65.5002 59.8481 65.3458 59.4106 64.9821 59.2373C64.6196 59.0615 64.1834 59.2131 64.0075 59.5771C63.5941 60.4361 63.394 61.3504 63.394 62.2471C63.394 62.682 63.4451 63.1116 63.5337 63.5317C62.9632 63.8432 62.3202 64.0431 61.6248 64.0927H61.6235C61.5094 64.1009 61.3979 64.1061 61.2852 64.1061C60.187 64.1061 59.1709 63.7249 58.3654 63.0791C57.6607 62.5154 57.1212 61.7569 56.8338 60.8735C57.3466 60.3676 57.7735 59.7729 58.0862 59.1137C58.258 58.7485 58.1022 58.3136 57.7373 58.1417C57.3735 57.9686 56.9345 58.1243 56.7639 58.4907C56.4753 59.103 56.0537 59.6466 55.5396 60.0802C54.8067 60.699 53.883 61.0964 52.8549 61.1704H52.8536C52.7395 61.1783 52.628 61.1837 52.5167 61.1837C50.1971 61.1837 48.2157 59.4695 47.88 57.1768L47.8787 57.1701V57.1661C47.8599 57.056 47.8478 56.9419 47.8398 56.8238C47.8318 56.7123 47.8278 56.5969 47.8278 56.4841C47.8278 56.1901 47.856 55.8989 47.9084 55.6182C47.9795 55.2208 47.7179 54.8396 47.3205 54.7658C46.9259 54.6947 46.5434 54.9538 46.4682 55.3511C46.4022 55.7188 46.3662 56.0974 46.3662 56.484L46.3675 56.5282C45.7098 56.4544 45.072 56.2436 44.5015 55.9094C43.7792 55.488 43.1657 54.8705 42.7416 54.0783C42.3644 53.3708 42.1857 52.6178 42.1857 51.8714C42.1857 50.9075 42.4852 49.9613 43.0369 49.1705C43.2504 49.4711 43.4906 49.7544 43.7604 50.0201C44.3779 50.6255 45.0921 51.0738 45.8479 51.3664C46.225 51.5143 46.6467 51.3261 46.7929 50.9477C46.9406 50.5718 46.7513 50.149 46.3768 50.0026C45.7982 49.7797 45.2558 49.4389 44.7859 48.9771V48.9758C44.3698 48.5704 44.0476 48.1085 43.818 47.6132C43.5228 46.9849 43.3751 46.3018 43.3751 45.6239C43.3762 44.4345 43.8193 43.2559 44.7133 42.3431C45.4745 41.5671 46.4329 41.1133 47.4276 40.9752H47.4289H47.4315C47.6437 40.9483 47.8557 40.9336 48.0678 40.9336C49.2546 40.9349 50.4345 41.382 51.35 42.2747C51.6387 42.5553 52.1004 42.5525 52.3837 42.2627C52.6657 41.9754 52.6604 41.5136 52.373 41.2303C51.2077 40.0892 49.699 39.5053 48.1886 39.4785C48.359 38.779 48.6867 38.1282 49.1457 37.5804C49.7834 36.8207 50.6547 36.2594 51.6964 36.0192C52.0508 35.9401 52.3997 35.8998 52.7473 35.8998C53.3595 35.8998 53.9555 36.0231 54.506 36.2461C54.3503 36.7911 54.2643 37.363 54.2643 37.9564C54.2643 38.359 54.5907 38.6852 54.9946 38.6852C55.3985 38.6852 55.7247 38.359 55.7247 37.9564C55.7247 37.3173 55.8551 36.7066 56.0833 36.1522C56.4363 35.3038 57.0337 34.5816 57.7841 34.0715C58.5371 33.5613 59.4379 33.2648 60.4165 33.2648C61.826 33.2648 63.0839 33.8808 63.9456 34.8648C64.6718 35.6904 65.1082 36.7696 65.1082 37.9564C65.1082 38.359 65.4372 38.6852 65.8398 38.6852C66.2439 38.6852 66.5728 38.359 66.5728 37.9564C66.5728 36.6058 66.1352 35.3534 65.3954 34.3399C65.7741 33.8164 66.256 33.3707 66.8143 33.0405C67.5123 32.6298 68.3245 32.3922 69.1958 32.3922C70.1998 32.3922 71.122 32.705 71.8832 33.2392C72.6471 33.7735 73.2431 34.5307 73.5801 35.4098H73.5788C73.7776 35.9321 73.8863 36.4931 73.8863 37.0852C73.8863 37.488 74.2151 37.8154 74.6179 37.8154C75.0207 37.8154 75.3508 37.488 75.3508 37.0852C75.3508 36.4811 75.2581 35.8999 75.0957 35.3482C75.963 34.5428 77.1107 34.0863 78.296 34.0863C78.9149 34.0863 79.5432 34.2085 80.1498 34.4675C80.9955 34.8341 81.6749 35.4126 82.1594 36.1188C82.6441 36.8262 82.9285 37.6558 82.9783 38.5148C82.9837 38.6034 82.9878 38.6908 82.9878 38.7792C82.985 39.3995 82.8628 40.0251 82.6025 40.6331C82.4429 41.0038 82.6145 41.4333 82.985 41.5916C83.3568 41.7514 83.785 41.5808 83.9461 41.2104C84.2173 40.5794 84.373 39.9283 84.4254 39.2747C85.1421 39.3256 85.8401 39.5431 86.4578 39.9082C87.1625 40.3244 87.7652 40.9337 88.1761 41.715C88.5358 42.3983 88.7049 43.1245 88.7064 43.844C88.7064 44.1729 88.6661 44.4991 88.5951 44.8186C88.1574 44.6468 87.7011 44.5314 87.2459 44.4642C86.8485 44.4092 86.4766 44.6884 86.4231 45.0884C86.3653 45.4886 86.6445 45.8576 87.0419 45.9127C87.5023 45.9783 87.9547 46.11 88.387 46.314C88.4622 46.439 88.5776 46.5423 88.7225 46.6055C88.8111 46.6443 88.9064 46.6633 88.9991 46.6633C89.2689 46.8431 89.5145 47.0458 89.7335 47.2673L89.7348 47.2686C90.6127 48.1531 91.0838 49.3466 91.0838 50.5668C91.0837 51.3953 90.8648 52.233 90.4003 52.9942Z" fill="#F7DECE"/>
<path d="M82.8061 46.5306C82.4436 46.2178 82.0544 45.9614 81.6421 45.7815C81.2286 45.5989 80.7937 45.4902 80.3494 45.4902C79.9454 45.4902 79.6191 45.8178 79.6191 46.2218C79.6191 46.6259 79.9454 46.9522 80.3494 46.9522C80.6179 46.9522 80.9562 47.0449 81.3159 47.2516C81.8515 47.5589 82.4087 48.112 82.8114 48.802C83.2196 49.4933 83.4799 50.3135 83.4773 51.1633C83.4745 52.0963 83.1806 53.0709 82.3832 54.0387C82.1281 54.3487 82.1711 54.8106 82.4824 55.067C82.794 55.3261 83.2557 55.2804 83.5122 54.9717C84.5149 53.7594 84.9431 52.4171 84.9418 51.1633C84.9418 50.4008 84.7861 49.6705 84.5311 49.0047C84.1444 48.0072 83.5297 47.156 82.8061 46.5306Z" fill="#C0CDE2"/>
<path d="M77.7503 43.2181C75.7407 43.2181 74.1284 42.4772 73.0115 41.5093C72.4531 41.0259 72.0261 40.4864 71.7456 39.9682C71.461 39.4514 71.3321 38.9587 71.3348 38.5895C71.3348 38.1869 71.0073 37.8594 70.6045 37.8594C70.2004 37.8594 69.8729 38.1869 69.8729 38.5895C69.8755 39.2756 70.0904 39.9816 70.4609 40.6664C70.8516 41.3805 71.4208 42.0744 72.1417 42.6838C71.9966 42.8852 71.7967 43.1483 71.5388 43.4262C70.983 44.0343 70.1804 44.7068 69.2204 45.0492C68.8433 45.1833 68.6432 45.6008 68.7788 45.982C68.9143 46.3633 69.3306 46.5593 69.7131 46.4249C71.014 45.9579 71.9858 45.1055 72.6476 44.3791C72.9417 44.0569 73.1698 43.7604 73.3404 43.5241C74.5485 44.2208 76.0426 44.6813 77.7501 44.6813C78.1542 44.6813 78.4803 44.3538 78.4803 43.951C78.4804 43.5471 78.1542 43.2181 77.7503 43.2181Z" fill="#BCCBE1"/>
<defs>
<linearGradient id="paint0_linear_4741_2343" x1="63.3012" y1="0" x2="63.3012" y2="125.665" gradientUnits="userSpaceOnUse">
<stop stop-color="#AFC1DC"/>
<stop offset="1" stop-color="#E2E5ED"/>
</linearGradient>
</defs>
</svg>

<svg id="Layer_1" data-name="Layer 1" xmlns="http://www.w3.org/2000/svg" xmlns:xlink="http://www.w3.org/1999/xlink" viewBox="0 0 125.66 125.67"><defs><style>.cls-1{fill:url(#linear-gradient);}.cls-2{fill:#319966;}.cls-3{fill:#bccbe1;}.cls-4{fill:#f7dece;}.cls-5{fill:#c0cde2;}</style><linearGradient id="linear-gradient" x1="63.3" y1="128" x2="63.3" y2="2.33" gradientTransform="matrix(1, 0, 0, -1, -0.47, 128)" gradientUnits="userSpaceOnUse"><stop offset="0" stop-color="#afc1dc"/><stop offset="1" stop-color="#e2e5ed"/></linearGradient></defs><title>Neurologist</title><circle class="cls-1" cx="62.83" cy="62.83" r="62.83"/><circle class="cls-2" cx="65.85" cy="54.79" r="26.64"/><path class="cls-3" d="M72.88,57.51a7.75,7.75,0,0,1-3.33-.67A6.11,6.11,0,0,1,66.3,53a4.06,4.06,0,0,1-.16-1,.73.73,0,1,0-1.46,0,4.76,4.76,0,0,0,.09.87,7.59,7.59,0,0,0,.67,1.87A7.39,7.39,0,0,0,68,57.65a7.82,7.82,0,0,0,1,.54,5.13,5.13,0,0,1,.14,1.19A5,5,0,0,1,69,60.6a4,4,0,0,1-.59,1.29.73.73,0,0,0,1.2.83A5.6,5.6,0,0,0,70.39,61a6.28,6.28,0,0,0,.2-1.59c0-.24,0-.46,0-.67a9.8,9.8,0,0,0,2.32.26.73.73,0,0,0,0-1.46Z" transform="translate(-0.47)"/><path class="cls-3" d="M76.12,48.1a.73.73,0,0,0-.72,1.27,3,3,0,0,1,1.09,1,7.17,7.17,0,0,1-2.4.45,5,5,0,0,1-2.6-.69,6,6,0,0,1-1.72-1.58A9,9,0,0,0,67,46.06a7.51,7.51,0,0,0-3.74-1,7.73,7.73,0,0,0-3.7,1,6.49,6.49,0,0,0-1.34,1,11.06,11.06,0,0,1-3.94.8A7.73,7.73,0,0,1,50.75,47a6.16,6.16,0,0,1-.88-.57l-.21-.18,0,0h0a.74.74,0,0,0-1,0,.73.73,0,0,0,0,1,6.15,6.15,0,0,0,1.51,1.07,8.66,8.66,0,0,0,1.53.62,9.91,9.91,0,0,0-.61,1,11.31,11.31,0,0,0-1.24,3.24.73.73,0,0,0,.57.86.72.72,0,0,0,.86-.57,10,10,0,0,1,1.08-2.81,8.83,8.83,0,0,1,.52-.82l.15-.21,0,0h0a.82.82,0,0,0,.14-.28,8.76,8.76,0,0,0,1.18.08,11.26,11.26,0,0,0,2.52-.3,6.79,6.79,0,0,0-.64,2.91,5.75,5.75,0,0,0,.5,2.45A.73.73,0,1,0,58,53.69a4.36,4.36,0,0,1-.36-1.83,5.37,5.37,0,0,1,.59-2.48,4.8,4.8,0,0,1,2.05-2.07,6.15,6.15,0,0,1,3-.82,6,6,0,0,1,3,.84,7.68,7.68,0,0,1,2.31,2.08,7.23,7.23,0,0,0,2.15,2,6.43,6.43,0,0,0,3.34.89,8.74,8.74,0,0,0,2.79-.49v.05a4.37,4.37,0,0,1-.11.92c0,.11-.06.2-.08.26s0,0,0,.06h0a.72.72,0,0,0,.4.94.74.74,0,0,0,1-.4,5.29,5.29,0,0,0,.31-1.8,4.14,4.14,0,0,0-2.22-3.74Z" transform="translate(-0.47)"/><path class="cls-3" d="M57.35,42.63a5,5,0,0,1,2-1.37A7.13,7.13,0,0,1,62,40.79a5.3,5.3,0,0,1,2.16.41.73.73,0,1,0,.62-1.32A6.64,6.64,0,0,0,62,39.33a8.59,8.59,0,0,0-3.1.57,6.47,6.47,0,0,0-2.62,1.79.74.74,0,0,0,.08,1A.73.73,0,0,0,57.35,42.63Z" transform="translate(-0.47)"/><path class="cls-4" d="M68.65,23.2c-18-1.11-33.19,10.22-32.85,28.69v1.67L28,67.39a2.67,2.67,0,0,0-.1,2.43,2.62,2.62,0,0,0,1.9,1.5l4.84,1.34,1.52,14.66a5,5,0,0,0,5.61,4.88l3.87.31a2.63,2.63,0,0,1,2.07.66,2.7,2.7,0,0,1,.89,2v11.52H81.25V98.86c0-2.23.77-7.32,2.22-9.65,5.3-8.48,13.93-13,15.39-30.36S89.94,24.51,68.65,23.2ZM90.4,53a4.62,4.62,0,0,1-3.21,2.19.73.73,0,1,0,.25,1.44,6.87,6.87,0,0,0,.87-.21,4.65,4.65,0,0,1,.47,2,4.8,4.8,0,0,1-.51,2.13,4.67,4.67,0,0,1-1.49,1.71,4.6,4.6,0,0,1-2.68.85h-.22c0-.12,0-.24,0-.36h0a6.25,6.25,0,0,0-.94-2.3l-.06-.08-.07-.06a13.18,13.18,0,0,1-1.86-2,8.19,8.19,0,0,1-.69-1.16,2.36,2.36,0,0,1-.24-.85.42.42,0,0,1,0-.18.21.21,0,0,1,.06-.08.74.74,0,0,0-1-1,1.63,1.63,0,0,0-.39.62,1.81,1.81,0,0,0-.12.68,3.58,3.58,0,0,0,.37,1.46,9.82,9.82,0,0,0,1.34,2.06,13.3,13.3,0,0,0,1.5,1.56A4.84,4.84,0,0,1,82.4,63a5.12,5.12,0,0,1,.07.77h0s0,.07,0,.1a4.69,4.69,0,0,1-3.83,4.61,5.21,5.21,0,0,1-.87.08,4.71,4.71,0,0,1-3.85-2,6.12,6.12,0,0,0,1.16-1.65h0a6.09,6.09,0,0,0,.61-2.4.73.73,0,1,0-1.46-.07,4.89,4.89,0,0,1-.46,1.84h0a4.65,4.65,0,0,1-1.24,1.59h0a4.73,4.73,0,0,1-5,.6,4.69,4.69,0,0,1-2.44-2.83h0a4.76,4.76,0,0,1,.25-3.44A.73.73,0,1,0,64,59.58a6.07,6.07,0,0,0-.62,2.67,6.87,6.87,0,0,0,.14,1.28,4.67,4.67,0,0,1-1.91.56h0l-.33,0a4.72,4.72,0,0,1-4.46-3.24,6.15,6.15,0,0,0,1.26-1.76.73.73,0,0,0-1.33-.62,4.68,4.68,0,0,1-3.91,2.68h-.33a4.7,4.7,0,0,1-4.64-4h0c0-.11,0-.23,0-.35s0-.22,0-.34a4.91,4.91,0,0,1,.08-.86.73.73,0,0,0-.59-.85.72.72,0,0,0-.85.58,6.09,6.09,0,0,0-.1,1.13v.05a4.92,4.92,0,0,1-1.87-.62,4.7,4.7,0,0,1-1.76-1.83,4.64,4.64,0,0,1-.55-2.21,4.75,4.75,0,0,1,.85-2.7,6.36,6.36,0,0,0,.72.85,6.2,6.2,0,0,0,2.09,1.35A.73.73,0,0,0,46.38,50a4.6,4.6,0,0,1-1.59-1h0a4.7,4.7,0,0,1-1.41-3.36,4.66,4.66,0,0,1,4-4.64h0a4.6,4.6,0,0,1,.64,0,4.71,4.71,0,0,1,3.28,1.34.73.73,0,1,0,1-1,6.12,6.12,0,0,0-4.18-1.75,4.69,4.69,0,0,1,1-1.9A4.62,4.62,0,0,1,51.7,36a4.7,4.7,0,0,1,1-.12,4.57,4.57,0,0,1,1.76.35A6,6,0,0,0,54.26,38a.73.73,0,0,0,1.46,0,5,5,0,0,1,.36-1.81,4.7,4.7,0,0,1,4.34-2.89A4.69,4.69,0,0,1,65.11,38a.73.73,0,0,0,1.46,0,6.12,6.12,0,0,0-1.17-3.62,4.63,4.63,0,0,1,3.8-2,4.72,4.72,0,0,1,4.38,3h0a4.64,4.64,0,0,1,.31,1.68.73.73,0,0,0,1.46,0,6.2,6.2,0,0,0-.25-1.74,4.69,4.69,0,0,1,5.05-.88,4.61,4.61,0,0,1,2,1.65A4.79,4.79,0,0,1,83,38.51c0,.09,0,.18,0,.27a4.66,4.66,0,0,1-.39,1.85.73.73,0,0,0,1.35.58,6.35,6.35,0,0,0,.48-1.94,4.74,4.74,0,0,1,2,.64,4.49,4.49,0,0,1,1.72,1.81,4.48,4.48,0,0,1,.42,3.1,6.58,6.58,0,0,0-1.35-.36.75.75,0,0,0-.83.63.72.72,0,0,0,.62.82,5.09,5.09,0,0,1,1.35.4.74.74,0,0,0,.33.3.92.92,0,0,0,.28,0,4.82,4.82,0,0,1,.73.61h0A4.68,4.68,0,0,1,90.4,53Z" transform="translate(-0.47)"/><path class="cls-5" d="M82.81,46.53a4.94,4.94,0,0,0-1.17-.75,3.23,3.23,0,0,0-1.29-.29.73.73,0,1,0,0,1.46,2,2,0,0,1,1,.3,4.37,4.37,0,0,1,1.49,1.55,4.66,4.66,0,0,1,.67,2.36A4.47,4.47,0,0,1,82.38,54a.74.74,0,0,0,.1,1,.73.73,0,0,0,1-.1,5.83,5.83,0,0,0,1-6A6.42,6.42,0,0,0,82.81,46.53Z" transform="translate(-0.47)"/><path class="cls-3" d="M77.75,43.22A7.16,7.16,0,0,1,73,41.51,5.48,5.48,0,0,1,71.75,40a3,3,0,0,1-.42-1.38.73.73,0,0,0-1.46,0,4.56,4.56,0,0,0,.59,2.08,7.26,7.26,0,0,0,1.68,2,6.65,6.65,0,0,1-2.92,2.37.73.73,0,0,0,.49,1.37,7.34,7.34,0,0,0,2.94-2,9.24,9.24,0,0,0,.69-.86,8.75,8.75,0,0,0,4.41,1.16.73.73,0,1,0,0-1.46Z" transform="translate(-0.47)"/></svg>
